X:297
T:
R:polska
S:Ur von Baumgartens samling i Visby.
O:Gotland, Visby
M:3/4
L:1/16
K:Bb
f2df b2ab g2f2|f2df ecAF F2B2|SFGAB cAFA dBFB|e2ec d2dB cBAG|
FGAB cAFA dBFB|e2ec d2dB cBAG|FEDE FGAB cAFA|ecAF F2B2 B4+fine+::
FGAB cdec b4|g2g=e fgaf c4|B2Bc A2A2 d4|cBAG G2G2 F4+D.S.+:|

